X:103
T:Thorn. LIT.103, The
M:4/4
Q:1/4=120
L:1/8
B:Wm. Litten MS, 1802
Z:Village Music Project 2017 Anne Wride
K:D
FG | A2 BA A2 Bc | d2 AG FD zA | d2 dc cB A^G | A6 F>A |
A2BA A2Bc | df AG FD B2 | ^Gd dc cB A^G | A2 ae ae cA |
c2 d>A d2 AA | e2 AA ff2d | dc cA F^G AB | F2 ED D3z |
c2zAd2 AA | e2ca gHf ad | dA eG FG Ad | d2 f/e/d/c/ d2 za |
b2 b/g/b/g/ ec zd | a2 a/f/a/f/ dB z B | g2 e/g/e/c/ df A/F/A/F/ | BG BG AF AF | D2 |]

